icons/svg/remote-desktop-control_14.svg

<?xml version="1.0" encoding="UTF-8"?>
<svg width="14px" height="14px" viewBox="0 0 14 14" version="1.1" xmlns="http://www.w3.org/2000/svg" xmlns:xlink="http://www.w3.org/1999/xlink">
    <!-- Generator: Sketch 60.1 (88133) - https://sketch.com -->
    <title>meetings/remote-desktop-control_14</title>
    <desc>Created with Sketch.</desc>
    <g id="meetings/remote-desktop-control_14" stroke="none" stroke-width="1" fill="none" fill-rule="evenodd">
        <path d="M12.3,0.9998 L1.7,0.9998 C0.761,0.9998 0,1.7608 0,2.6998 L0,9.2998 C0,10.2388 0.761,10.9998 1.7,10.9998 L5.5,10.9998 L5.5,11.4998 C5.5,11.7758 5.276,11.9998 5,11.9998 C4.724,11.9998 4.5,12.2238 4.5,12.4998 C4.5,12.7768 4.724,12.9998 5,12.9998 L9,12.9998 C9.276,12.9998 9.5,12.7768 9.5,12.4998 C9.5,12.2238 9.276,11.9998 9,11.9998 C8.724,11.9998 8.5,11.7758 8.5,11.4998 L8.5,10.9998 L12.3,10.9998 C13.239,10.9998 14,10.2388 14,9.2998 L14,2.6998 C14,1.7608 13.239,0.9998 12.3,0.9998 L12.3,0.9998 Z M7.586,11.9998 L6.414,11.9998 C6.47,11.8438 6.5,11.6748 6.5,11.4998 L6.5,10.9998 L7.5,10.9998 L7.5,11.4998 C7.5,11.6748 7.53,11.8438 7.586,11.9998 L7.586,11.9998 Z M13,9.2998 C13,9.6858 12.686,9.9998 12.3,9.9998 L1.7,9.9998 C1.314,9.9998 1,9.6858 1,9.2998 L1,2.6998 C1,2.3148 1.314,1.9998 1.7,1.9998 L12.3,1.9998 C12.686,1.9998 13,2.3148 13,2.6998 L13,9.2998 Z M8.312,3.0366 C8.124,3.1146 8.001,3.2976 8.001,3.5006 L8.001,7.5906 C8.001,7.7636 8.09,7.9246 8.238,8.0166 C8.318,8.0656 8.409,8.0906 8.501,8.0906 C8.577,8.0906 8.654,8.0736 8.725,8.0376 L9.694,7.5526 L10.333,8.7376 C10.423,8.9056 10.596,8.9996 10.773,8.9996 C10.854,8.9996 10.935,8.9806 11.011,8.9406 C11.253,8.8086 11.344,8.5056 11.213,8.2626 L10.589,7.1056 L11.451,6.6746 C11.594,6.6036 11.694,6.4676 11.721,6.3106 C11.747,6.1526 11.696,5.9926 11.585,5.8776 C8.662,2.8936 8.662,2.8956 8.312,3.0366 L8.312,3.0366 Z M9.001,4.6826 C9.417,5.1006 9.93,5.6196 10.39,6.0876 L9.001,6.7826 L9.001,4.6826 Z" id="fill" fill="#171B1F"></path>
    </g>
</svg>

<svg width="14" height="14" viewBox="0 0 14 14" xmlns="http://www.w3.org/2000/svg"><title>meetings/remote-desktop-control_14</title><path d="M13 9.2998c0 .386-.314.7-.7.7l-10.6 0c-.386 0-.7-.314-.7-.7l0-6.6c0-.385.314-.7.7-.7l10.6 0c.386 0 .7.315.7.7l0 6.6zm-5.414 2.7l-1.172 0c.056-.156.086-.325.086-.5l0-.5 1 0 0 .5c0 .175.03.344.086.5zm4.714-11c.939 0 1.7.761 1.7 1.7l0 6.6c0 .939-.761 1.7-1.7 1.7l-3.8 0 0 .5c0 .276.224.5.5.5.276 0 .5.224.5.5 0 .277-.224.5-.5.5l-4 0c-.276 0-.5-.223-.5-.5 0-.276.224-.5.5-.5.276 0 .5-.224.5-.5l0-.5-3.8 0c-.939 0-1.7-.761-1.7-1.7l0-6.6c0-.939.761-1.7 1.7-1.7l10.6 0zM9.001 4.6826c.416.418.929.937 1.389 1.405l-1.389.695 0-2.1zm-.689-1.646c-.188.078-.311.261-.311.464l0 4.09c0 .173.089.334.237.426.08.049.171.074.263.074.076 0 .153-.017.224-.053l.969-.485.639 1.185c.09.168.263.262.44.262.081 0 .162-.019.238-.059.242-.132.333-.435.202-.678l-.624-1.157.862-.431c.143-.071.243-.207.27-.364.026-.158-.025-.318-.136-.433-2.923-2.984-2.923-2.982-3.273-2.841z" fill-rule="evenodd"/></svg>
